X: 1240
T: The Green Fields of America
M:C|
L:1/8
R:Reel
B:O'Neill's 1240
N:Collected by F. O'Neill
Z:Transcribed by Trish O'Neil
K:G
c2(ec)B2(dB)|AGAB AGEF|GAGE DEGB|AGAB AGEG|
c2(ec)B2(dB)|AGAB AGEF|GAGE DEGA|BGAFG2z2||
GABcd2ef|gage dBGB|c2(ec)B2(dB)|AGAB AGE2|
gfgd efge|dcBG AGEF|GAGE DEGA|BGAFG2z2||


